Papirus-GTK/24x24/apps/qtractor.svg

<?xml version="1.0" encoding="UTF-8" standalone="no"?>
<!-- Created with Inkscape (http://www.inkscape.org/) -->

<svg
   xmlns:dc="http://purl.org/dc/elements/1.1/"
   xmlns:cc="http://creativecommons.org/ns#"
   xmlns:rdf="http://www.w3.org/1999/02/22-rdf-syntax-ns#"
   xmlns:svg="http://www.w3.org/2000/svg"
   xmlns="http://www.w3.org/2000/svg"
   xmlns:sodipodi="http://sodipodi.sourceforge.net/DTD/sodipodi-0.dtd"
   xmlns:inkscape="http://www.inkscape.org/namespaces/inkscape"
   id="svg2817"
   height="24"
   width="24"
   version="1.0"
   inkscape:version="0.91 r13725"
   sodipodi:docname="qtractor.svg">
  <sodipodi:namedview
     pagecolor="#ffffff"
     bordercolor="#666666"
     borderopacity="1"
     objecttolerance="10"
     gridtolerance="10"
     guidetolerance="10"
     inkscape:pageopacity="0"
     inkscape:pageshadow="2"
     inkscape:window-width="1600"
     inkscape:window-height="845"
     id="namedview19"
     showgrid="false"
     inkscape:zoom="18.55"
     inkscape:cx="-4.5254237"
     inkscape:cy="6.2656129"
     inkscape:window-x="0"
     inkscape:window-y="32"
     inkscape:window-maximized="1"
     inkscape:current-layer="svg2817" />
  <metadata
     id="metadata57">
    <rdf:RDF>
      <cc:Work
         rdf:about="">
        <dc:format>image/svg+xml</dc:format>
        <dc:type
           rdf:resource="http://purl.org/dc/dcmitype/StillImage" />
        <dc:title />
      </cc:Work>
    </rdf:RDF>
  </metadata>
  <defs
     id="defs2819">
    <radialGradient
       id="radialGradient3035"
       fx="143.62"
       fy="122.04"
       gradientUnits="userSpaceOnUse"
       cy="109.06"
       cx="198.31"
       gradientTransform="matrix(0.07267532,-0.00627503,0.00749803,0.09755043,2.0328001,-1.2024516)"
       r="63.508">
      <stop
         id="stop2284"
         stop-color="#1d1100"
         stop-opacity=".66667"
         offset="0" />
      <stop
         id="stop2292"
         stop-color="#4f340c"
         stop-opacity=".30196"
         offset=".52659" />
      <stop
         id="stop2285"
         stop-color="#3d3001"
         stop-opacity="0"
         offset="1" />
    </radialGradient>
  </defs>
  <path
     style="fill:#c6ae91"
     inkscape:connector-curvature="0"
     id="rect4187"
     d="m 12.500046,6.4999321 0.500002,5.0000219 c 0,0 -3.3089644,-0.426937 -4.5000196,0.500002 -1.1238049,0.874604 -1.5000066,4.000018 -1.5000066,4.000018 l -1.5000065,0 c 0,0 0.09378,-3.562066 1.0000044,-5.000022 C 7.8329755,8.8849426 12.500046,6.4999321 12.500046,6.4999321 Z" />
  <path
     style="opacity:0.2;fill:#ffffff"
     inkscape:connector-curvature="0"
     id="path4212"
     d="m 12.500046,6.4999321 c 0,0 -4.6670205,2.3850105 -6.0000263,4.5000199 -0.906004,1.438006 -1.0000044,5.000022 -1.0000044,5.000022 l 0.0255,0 c 0.058,-0.998005 0.2640011,-3.372515 0.9745043,-4.50002 C 7.8330255,9.3849447 12.500046,6.9999343 12.500046,6.9999343 l 0.449002,4.4950197 c 0.004,5e-4 0.051,0.005 0.051,0.005 L 12.500046,6.4999321 Z" />
  <ellipse
     style="fill:#d1bda5"
     id="path4185"
     rx="4.9006791"
     ry="6.5750308"
     transform="matrix(0.96348853,-0.2677496,0.25013993,0.9682097,0,0)"
     cy="12.74367"
     cx="14.335731" />
  <path
     inkscape:connector-curvature="0"
     style="fill:url(#radialGradient3035);fill-rule:evenodd;stroke-width:1pt"
     id="path2282"
     d="m 13.37905,3.1764676 c -1.225356,1.2233553 -1.392556,4.6606704 0.07207,8.2380364 1.454756,3.524965 5.865526,3.182864 6.963031,1.934558 C 21.52216,12.153057 23.083667,9.1570437 20.214655,4.867525 17.365142,0.68275663 14.64413,1.9441122 13.379125,3.1765676 Z" />
  <rect
     style="fill:#0b0b0b"
     id="rect4208"
     rx="0.96135426"
     ry="0.50000221"
     height="0.50000221"
     width="8.0000353"
     y="14.499968"
     x="4.500011" />
  <path
     style="opacity:0.2;fill:#ffffff"
     inkscape:connector-curvature="0"
     id="ellipse4217"
     d="M 16.326063,1.9999124 A 6.5765288,4.8988715 76.817 0 0 15.355558,2.133713 6.5765288,4.8988715 76.817 0 0 12.008044,7.9487385 6.5765288,4.8988715 76.817 0 1 15.355558,2.6337152 6.5765288,4.8988715 76.817 0 1 21.721586,7.6872373 6.5765288,4.8988715 76.817 0 1 21.992088,9.5507455 6.5765288,4.8988715 76.817 0 0 21.721586,7.1872351 6.5765288,4.8988715 76.817 0 0 16.326063,1.9997124 Z" />
  <path
     style="fill:#c6ae91"
     inkscape:connector-curvature="0"
     id="rect4183"
     d="m 3.0000043,14.999969 11.0000487,0 c 0.554002,0 1.000004,0.390252 1.000004,0.875004 l 0,5.250023 C 15.000057,21.609998 14.554055,22 14.000053,22 L 3.0000043,22 C 2.4460019,22 1.9999999,21.609998 1.9999999,21.124996 l 0,-5.250023 c 0,-0.485002 0.446002,-0.875004 1.0000044,-0.875004 z" />
  <rect
     style="fill:#c69191"
     id="rect4210"
     rx="0.69230306"
     ry="0.62500274"
     height="5.0000219"
     width="9.0000391"
     y="15.999973"
     x="4.0000086" />
  <path
     style="opacity:0.2;fill:#ffffff"
     inkscape:connector-curvature="0"
     id="path4223"
     d="m 3.0000043,14.999969 c -0.5540024,0 -1.0000044,0.390252 -1.0000044,0.875004 l 0,0.500002 c 0,-0.485002 0.446002,-0.875003 1.0000044,-0.875003 l 11.0000487,0 c 0.554002,0 1.000004,0.390251 1.000004,0.875003 l 0,-0.500002 c 0,-0.485002 -0.446002,-0.875004 -1.000004,-0.875004 l -11.0000487,0 z" />
  <path
     style="opacity:0.3"
     inkscape:connector-curvature="0"
     id="path4236"
     d="m 21.992088,9.1599438 a 6.5765288,4.8988715 76.817 0 1 -3.347515,5.2060232 6.5765288,4.8988715 76.817 0 1 -5.741025,-3.376015 c -0.275002,-0.033 -3.2665146,-0.375002 -4.4035196,0.510002 -0.7116531,0.553852 -1.1217549,2.006209 -1.3281058,3.000013 l 0.1201155,0 c 0.229501,-0.933004 0.6060027,-2.031509 1.2080053,-2.500011 1.137205,-0.885054 4.1284176,-0.543152 4.4033196,-0.509752 a 6.5765288,4.8988715 76.817 0 0 5.741025,3.376015 6.5765288,4.8988715 76.817 0 0 3.347665,-5.7060252 z M 1.9999999,20.624994 l 0,0.500002 C 1.9999999,21.609998 2.4460019,22 3.0000043,22 l 11.0000487,0 c 0.554002,0 1.000004,-0.390252 1.000004,-0.875004 l 0,-0.500002 c 0,0.485002 -0.446002,0.875004 -1.000004,0.875004 l -11.0000487,0 c -0.5540024,0 -1.0000044,-0.390002 -1.0000044,-0.875004 z" />
</svg>

<?xml version="1.0" encoding="UTF-8" standalone="no"?>
<svg id="svg2817" xmlns:rdf="http://www.w3.org/1999/02/22-rdf-syntax-ns#" xmlns="http://www.w3.org/2000/svg" height="24" width="24" version="1.0" xmlns:cc="http://creativecommons.org/ns#" xmlns:dc="http://purl.org/dc/elements/1.1/">
 <metadata id="metadata57">
  <rdf:RDF>
   <cc:Work rdf:about="">
    <dc:format>image/svg+xml</dc:format>
    <dc:type rdf:resource="http://purl.org/dc/dcmitype/StillImage"/>
    <dc:title/>
   </cc:Work>
  </rdf:RDF>
 </metadata>
 <defs id="defs2819">
  <radialGradient id="radialGradient3035" fx="143.62" fy="122.04" gradientUnits="userSpaceOnUse" cy="109.06" cx="198.31" gradientTransform="matrix(.072675 -.0062750 .0074980 .097550 2.0328 -1.2025)" r="63.508">
   <stop id="stop2284" stop-opacity=".66667" stop-color="#1d1100" offset="0"/>
   <stop id="stop2292" stop-opacity=".30196" stop-color="#4f340c" offset=".52659"/>
   <stop id="stop2285" stop-opacity="0" stop-color="#3d3001" offset="1"/>
  </radialGradient>
 </defs>
 <path id="rect4187" fill="#c6ae91" d="m12.5 6.4999 0.5 5s-3.309-0.42694-4.5 0.5c-1.1238 0.8746-1.5 4-1.5 4h-1.5s0.09378-3.5621 1-5c1.333-2.1151 6-4.5001 6-4.5001z"/>
 <path id="path4212" opacity=".2" fill="#fff" d="m12.5 6.4999s-4.667 2.385-6 4.5c-0.906 1.438-1 5-1 5h0.0255c0.058-0.998 0.264-3.3725 0.9745-4.5 1.333-2.1151 6-4.5001 6-4.5001l0.449 4.495c0.004 0.0005 0.051 0.005 0.051 0.005l-0.5-5.0001z"/>
 <ellipse id="path4185" rx="4.9007" transform="matrix(.96349 -.26775 .25014 .96821 0 0)" ry="6.575" cy="12.744" cx="14.336" fill="#d1bda5"/>
 <path id="path2282" d="m13.379 3.1765c-1.2254 1.2234-1.3926 4.6607 0.07207 8.238 1.4548 3.525 5.8655 3.1829 6.963 1.9346 1.108-1.197 2.67-4.193-0.199-8.4825-2.85-4.1847-5.571-2.9234-6.836-1.6909z" fill-rule="evenodd" stroke-width="1pt" fill="url(#radialGradient3035)"/>
 <rect id="rect4208" rx=".96135" ry="0.5" height="0.5" width="8" y="14.5" x="4.5" fill="#0b0b0b"/>
 <path id="ellipse4217" opacity=".2" fill="#fff" d="m16.326 1.9999a6.5765 4.8989 76.817 0 0 -0.97 0.1338 6.5765 4.8989 76.817 0 0 -3.348 5.815 6.5765 4.8989 76.817 0 1 3.348 -5.315 6.5765 4.8989 76.817 0 1 6.366 5.0535 6.5765 4.8989 76.817 0 1 0.27 1.8635 6.5765 4.8989 76.817 0 0 -0.27 -2.3635 6.5765 4.8989 76.817 0 0 -5.396 -5.1875z"/>
 <path id="rect4183" fill="#c6ae91" d="m3 15h11c0.554 0 1 0.39025 1 0.875v5.25c0 0.485-0.446 0.875-1 0.875h-11c-0.554 0-1-0.39-1-0.875v-5.25c0-0.485 0.446-0.875 1-0.875z"/>
 <rect id="rect4210" rx=".69230" ry="0.625" height="5" width="9" y="16" x="4" fill="#c69191"/>
 <path id="path4223" opacity=".2" fill="#fff" d="m3 15c-0.554 0-1 0.39025-1 0.875v0.5c0-0.485 0.446-0.875 1-0.875h11c0.554 0 1 0.39025 1 0.875v-0.5c0-0.485-0.446-0.875-1-0.875h-11z"/>
 <path id="path4236" opacity=".2" d="m21.992 9.6599a6.5765 4.8989 76.817 0 1 -3.3475 5.206 6.5765 4.8989 76.817 0 1 -5.741 -3.376c-0.275-0.033-3.2665-0.375-4.4035 0.51-0.71165 0.55385-1.1218 2.0062-1.3281 3h0.12012c0.2295-0.933 0.606-2.0315 1.208-2.5 1.1372-0.88505 4.1284-0.54315 4.4033-0.50975a6.5765 4.8989 76.817 0 0 5.741 3.376 6.5765 4.8989 76.817 0 0 3.3477 -5.706zm-19.992 11.465v0.5c0 0.485 0.446 0.875 1 0.875h11c0.554 0 1-0.39025 1-0.875v-0.5c0 0.485-0.446 0.875-1 0.875h-11c-0.554 0-1-0.39-1-0.875z"/>
</svg>
